X: 5159
T: Brighter Days
R: reel
M: 4/4
K: Dmajor
|:AGFA d3f|fgfd efdB|AGFA defa|geed eedB|
AGFA d3f|fgfd efd2|fgfe defb|1 afdf efdB:|2 afdf eefg||
|:aAdf ~g3e|~f3d edcd|AGFA defa|geed eefg|
aAdf ~g3e|fgfe d2BG|AGFA defg|1 edce d2fg:|2 edce d3B||

